X:415
T:Trip to Athlone, The
M:6/8
L:1/8
Q:120
R:Jig (Key of D)
K:D
"D"ABA D3 | "C"d=cA AGE | "D"ABA ABc | "A"dAB cde |
"D"ABA ~D3 | "C"d=cA AGE | "D"GFG "A"Ade |1 "D"fdc d2c :|2 "D"fdc d2e |:
"D"f2d edc | "A"Add cde | "D"fed edc | "A"ABc "D"def |
"C"~g3 age | "G"d=cA AGE | "D"GFG "A"Ade |1 "D"fdc d2e :|2 "D"fdc d2c |]
